X: 223
T: You huayuan
L: 1/8
M: 2/4
K: G
d BA2 [I:setbarnb 1]| 
d B/ d/A2 | 
d d B d | 
B AG2 | 
A G A A | 
Bd3 | 
d A B A | 
G ED2 | 
A A/ B/d2 | 
E/ G/ AD2 | 
d> B A/ B/ A/ G/ | 
E/ G/ AD2 | 
A A B/ A/ G | 
A4 | 
d B d d | 
E B A E | 
GD2z | 
dA2z | 
A/ G/ ED2 |]

@@@ Tune index: 9097
